src/assets/duotone/Coin1.svg

<svg width="24" height="24" viewBox="0 0 24 24"  xmlns="http://www.w3.org/2000/svg">
<path opacity="0.4" d="M9.99 17.98C14.4028 17.98 17.98 14.4028 17.98 9.99C17.98 5.57724 14.4028 2 9.99 2C5.57724 2 2 5.57724 2 9.99C2 14.4028 5.57724 17.98 9.99 17.98Z" />
<path d="M21.9701 15.99C21.9701 19.29 19.2901 21.97 15.9901 21.97C13.9501 21.97 12.1601 20.95 11.0801 19.4C15.4401 18.91 18.9101 15.44 19.4001 11.08C20.9501 12.16 21.9701 13.95 21.9701 15.99Z" />
<path d="M11.45 9.70997L9.05 8.86997C8.81 8.78997 8.76 8.76997 8.76 8.41997C8.76 8.15997 8.94 7.94997 9.17 7.94997H10.67C10.99 7.94997 11.25 8.23997 11.25 8.59997C11.25 9.00997 11.59 9.34997 12 9.34997C12.41 9.34997 12.75 9.00997 12.75 8.59997C12.75 7.44997 11.86 6.50997 10.75 6.45997V6.40997C10.75 5.99997 10.41 5.65997 10 5.65997C9.59 5.65997 9.25 5.98997 9.25 6.40997V6.45997H9.16C8.11 6.45997 7.25 7.33997 7.25 8.42997C7.25 9.37997 7.67 9.98997 8.54 10.29L10.95 11.13C11.19 11.21 11.24 11.23 11.24 11.58C11.24 11.84 11.06 12.05 10.83 12.05H9.33C9.01 12.05 8.75 11.76 8.75 11.4C8.75 10.99 8.41 10.65 8 10.65C7.59 10.65 7.25 10.99 7.25 11.4C7.25 12.55 8.14 13.49 9.25 13.54V13.6C9.25 14.01 9.59 14.35 10 14.35C10.41 14.35 10.75 14.01 10.75 13.6V13.55H10.84C11.89 13.55 12.75 12.67 12.75 11.58C12.75 10.63 12.32 10.02 11.45 9.70997Z" />
</svg>

<?xml version="1.0" encoding="UTF-8"?>
<svg width="24" height="24" viewBox="0 0 24 24" xmlns="http://www.w3.org/2000/svg">
 <path d="m9.99 17.98c4.4128 0 7.99-3.5772 7.99-7.99 0-4.4128-3.5772-7.99-7.99-7.99-4.4128 0-7.99 3.5772-7.99 7.99 0 4.4128 3.5772 7.99 7.99 7.99z" opacity=".4"/>
 <path d="m21.97 15.99c0 3.3-2.68 5.98-5.98 5.98-2.04 0-3.83-1.02-4.91-2.57 4.36-0.49 7.83-3.96 8.32-8.32 1.55 1.08 2.57 2.87 2.57 4.91z"/>
 <path d="m11.45 9.71-2.4-0.84c-0.24-0.08-0.29-0.1-0.29-0.45 0-0.26 0.18-0.47 0.41-0.47h1.5c0.32 0 0.58 0.29 0.58 0.65 0 0.41 0.34 0.75 0.75 0.75s0.75-0.34 0.75-0.75c0-1.15-0.89-2.09-2-2.14v-0.05c0-0.41-0.34-0.75-0.75-0.75s-0.75 0.33-0.75 0.75v0.05h-0.09c-1.05 0-1.91 0.88-1.91 1.97 0 0.95 0.42 1.56 1.29 1.86l2.41 0.84c0.24 0.08 0.29 0.1 0.29 0.45 0 0.26-0.18 0.47-0.41 0.47h-1.5c-0.32 0-0.58-0.29-0.58-0.65 0-0.41-0.34-0.75-0.75-0.75s-0.75 0.34-0.75 0.75c0 1.15 0.89 2.09 2 2.14v0.06c0 0.41 0.34 0.75 0.75 0.75s0.75-0.34 0.75-0.75v-0.05h0.09c1.05 0 1.91-0.88 1.91-1.97 0-0.95-0.43-1.56-1.3-1.87z"/>
</svg>
